src/images/svg/binary-to-deriv/no-signup-icon.svg

<svg width="48" height="48" fill="none" xmlns="http://www.w3.org/2000/svg"><rect width="48" height="48" rx="8" fill="#FF6444"/><path fill-rule="evenodd" clip-rule="evenodd" d="M31 16h-4.18c-.42-1.16-1.52-2-2.82-2-1.3 0-2.4.84-2.82 2H17c-1.1 0-2 .9-2 2v14c0 1.1.9 2 2 2h14c1.1 0 2-.9 2-2V18c0-1.1-.9-2-2-2zm-7 0c.55 0 1 .45 1 1s-.45 1-1 1-1-.45-1-1 .45-1 1-1zm-5.3 10.7 2.59 2.59c.39.39 1.03.39 1.41 0l6.59-6.59a.996.996 0 1 0-1.41-1.41L22 27.17l-1.89-1.88a.996.996 0 1 0-1.41 1.41z" fill="#fff"/></svg>

<svg width="48" height="48" viewBox="0 0 48 48" fill="none" xmlns="http://www.w3.org/2000/svg">
<rect width="48" height="48" rx="8" fill="#FF6444"/>
<path fill-rule="evenodd" clip-rule="evenodd" d="M31 16H26.82C26.4 14.84 25.3 14 24 14C22.7 14 21.6 14.84 21.18 16H17C15.9 16 15 16.9 15 18V32C15 33.1 15.9 34 17 34H31C32.1 34 33 33.1 33 32V18C33 16.9 32.1 16 31 16ZM24 16C24.55 16 25 16.45 25 17C25 17.55 24.55 18 24 18C23.45 18 23 17.55 23 17C23 16.45 23.45 16 24 16ZM18.7 26.7L21.29 29.29C21.68 29.68 22.32 29.68 22.7 29.29L29.29 22.7C29.68 22.31 29.68 21.68 29.29 21.29C28.9 20.9 28.27 20.9 27.88 21.29L22 27.17L20.11 25.29C19.72 24.9 19.09 24.9 18.7 25.29C18.5127 25.4768 18.4075 25.7305 18.4075 25.995C18.4075 26.2595 18.5127 26.5132 18.7 26.7Z" fill="white"/>
</svg>
